icons/svg/shields/h_topo_firepit_shield.svg

<?xml version="1.0" encoding="UTF-8" standalone="no"?>
<!-- Created with Inkscape (http://www.inkscape.org/) -->

<svg
   xmlns:dc="http://purl.org/dc/elements/1.1/"
   xmlns:cc="http://creativecommons.org/ns#"
   xmlns:rdf="http://www.w3.org/1999/02/22-rdf-syntax-ns#"
   xmlns:svg="http://www.w3.org/2000/svg"
   xmlns="http://www.w3.org/2000/svg"
   xmlns:sodipodi="http://sodipodi.sourceforge.net/DTD/sodipodi-0.dtd"
   xmlns:inkscape="http://www.inkscape.org/namespaces/inkscape"
   version="1.0"
   width="16"
   height="16"
   id="svg2"
   sodipodi:version="0.32"
   inkscape:version="0.91 r13725"
   sodipodi:docname="h_topo_firepit_shield.svg"
   inkscape:output_extension="org.inkscape.output.svg.inkscape">
  <metadata
     id="metadata10">
    <rdf:RDF>
      <cc:Work
         rdf:about="">
        <dc:format>image/svg+xml</dc:format>
        <dc:type
           rdf:resource="http://purl.org/dc/dcmitype/StillImage" />
        <cc:license
           rdf:resource="http://web.resource.org/cc/PublicDomain" />
        <dc:language>en</dc:language>
        <dc:title />
      </cc:Work>
    </rdf:RDF>
  </metadata>
  <sodipodi:namedview
     inkscape:window-height="1006"
     inkscape:window-width="1920"
     inkscape:pageshadow="2"
     inkscape:pageopacity="0.0"
     guidetolerance="10.0"
     gridtolerance="10.0"
     objecttolerance="10.0"
     borderopacity="1.0"
     bordercolor="#666666"
     pagecolor="#ffffff"
     id="base"
     showgrid="false"
     inkscape:zoom="32"
     inkscape:cx="-2.797158"
     inkscape:cy="7.8385153"
     inkscape:window-x="1920"
     inkscape:window-y="0"
     inkscape:current-layer="svg2"
     inkscape:window-maximized="1"
     showguides="true"
     inkscape:guide-bbox="true" />
  <defs
     id="defs4">
    <inkscape:perspective
       sodipodi:type="inkscape:persp3d"
       inkscape:vp_x="0 : 290 : 1"
       inkscape:vp_y="0 : 1000 : 0"
       inkscape:vp_z="580 : 290 : 1"
       inkscape:persp3d-origin="290 : 193.33333 : 1"
       id="perspective12" />
    <style
       type="text/css"
       id="style6">
   
    .fil0 {fill:#EF7900}
   
  </style>
    <inkscape:perspective
       id="perspective6807"
       inkscape:persp3d-origin="29.116032 : 19.410688 : 1"
       inkscape:vp_z="58.232063 : 29.116032 : 1"
       inkscape:vp_y="0 : 1000 : 0"
       inkscape:vp_x="0 : 29.116032 : 1"
       sodipodi:type="inkscape:persp3d" />
    <inkscape:perspective
       id="perspective6954"
       inkscape:persp3d-origin="290 : 193.33333 : 1"
       inkscape:vp_z="580 : 290 : 1"
       inkscape:vp_y="0 : 1000 : 0"
       inkscape:vp_x="0 : 290 : 1"
       sodipodi:type="inkscape:persp3d" />
    <inkscape:perspective
       id="perspective2541"
       inkscape:persp3d-origin="240 : 160 : 1"
       inkscape:vp_z="480 : 240 : 1"
       inkscape:vp_y="0 : 1000 : 0"
       inkscape:vp_x="0 : 240 : 1"
       sodipodi:type="inkscape:persp3d" />
    <inkscape:perspective
       id="perspective2750"
       inkscape:persp3d-origin="215 : 143.33333 : 1"
       inkscape:vp_z="430 : 215 : 1"
       inkscape:vp_y="0 : 1000 : 0"
       inkscape:vp_x="0 : 215 : 1"
       sodipodi:type="inkscape:persp3d" />
    <inkscape:perspective
       id="perspective3730"
       inkscape:persp3d-origin="88.929146 : 101.19778 : 1"
       inkscape:vp_z="177.85829 : 151.79668 : 1"
       inkscape:vp_y="0 : 1000 : 0"
       inkscape:vp_x="0 : 151.79668 : 1"
       sodipodi:type="inkscape:persp3d" />
  </defs>
  <path
     sodipodi:type="inkscape:offset"
     inkscape:radius="1.066628"
     inkscape:original="M 7.703125 1.4863281 C 7.0523814 4.1287203 8.2394302 4.1051913 8.8984375 5.6582031 C 9.3606793 3.2635165 7.978886 3.8026345 7.703125 1.4863281 z M 7.0488281 3.2265625 C 6.6392857 4.7268985 7.2094644 5.4450299 7.1699219 6.5429688 C 6.5964611 5.5277063 6.0273776 4.629971 5.4804688 4.2519531 C 5.9313218 5.1605803 5.3425092 6.2505788 5.140625 7.1347656 C 4.8528412 8.395164 5.2433297 9.2389251 5.8828125 9.5996094 C 5.8731357 8.9854468 6.075792 8.4423685 6.1953125 8.3125 C 6.352862 9.4223445 6.5316629 10.102579 7.4101562 10.765625 C 7.498759 9.3677439 7.9380796 9.7308838 8.09375 7.9921875 C 8.7349488 9.0511522 8.6105796 10.109004 8.2949219 11.167969 C 8.8597133 10.663177 9.4852103 10.248103 10.265625 7.9921875 L 10.105469 9.6796875 C 10.602511 8.4641607 12.019533 7.2576314 9.53125 3.859375 C 9.778348 5.8304046 9.2727141 6.0909717 9.0292969 6.8847656 C 8.4570215 5.1964546 7.3298429 5.0826696 7.0488281 3.2265625 z M 4.2910156 11.353516 C 3.9899952 11.350816 3.7066075 11.551948 3.640625 11.841797 C 3.60388 12.001941 3.6271409 12.174602 3.7167969 12.314453 L 6.5800781 11.808594 L 4.4199219 11.363281 C 4.3766969 11.353981 4.3340189 11.353916 4.2910156 11.353516 z M 12.347656 11.353516 C 12.293596 11.355116 12.229773 11.358614 12.166016 11.371094 L 3.4433594 12.921875 C 3.4205994 12.916575 3.2689147 13.009785 3.1699219 13.154297 C 3.0761389 13.29168 3.0424097 13.453445 3.0742188 13.615234 C 3.1329008 13.912762 3.4028169 14.130859 3.7167969 14.130859 C 3.7562849 14.130859 3.7978549 14.128294 3.8378906 14.121094 L 12.40625 12.613281 C 12.583395 12.581471 12.736669 12.484632 12.835938 12.339844 C 12.929168 12.202461 12.9615 12.038193 12.929688 11.876953 C 12.872098 11.582785 12.726043 11.342129 12.347656 11.353516 z M 12.3125 13.1875 L 9.484375 13.685547 L 11.601562 14.113281 C 11.642143 14.121781 11.682032 14.129769 11.720703 14.130859 L 11.746094 14.130859 C 12.054863 14.130859 12.314225 13.923484 12.380859 13.632812 C 12.416509 13.478153 12.39477 13.324336 12.3125 13.1875 z "
     style="color:#000000;clip-rule:nonzero;display:inline;overflow:visible;visibility:visible;opacity:0.81199999;isolation:auto;mix-blend-mode:normal;color-interpolation:sRGB;color-interpolation-filters:linearRGB;solid-color:#000000;solid-opacity:1;fill:#ffffff;fill-opacity:1;fill-rule:nonzero;stroke:none;stroke-width:0.78325456;stroke-linecap:butt;stroke-linejoin:miter;stroke-miterlimit:4;stroke-dasharray:none;stroke-dashoffset:0;stroke-opacity:1;marker:none;color-rendering:auto;image-rendering:auto;shape-rendering:auto;text-rendering:auto;enable-background:accumulate"
     id="path4174"
     d="m 7.6523438,0.421875 a 1.0667346,1.0667346 0 0 0 -0.984375,0.8085938 c -0.09868,0.4006959 -0.075009,0.7031497 -0.1015626,1.046875 A 1.0667346,1.0667346 0 0 0 6.0195312,2.9453125 C 5.9781338,3.0969698 6.029958,3.1783361 6.0039062,3.3222656 A 1.0667346,1.0667346 0 0 0 4.5253906,4.7265625 c 0.067768,0.1365756 0.082834,0.3446358 -0.00781,0.7324219 -0.090646,0.387786 -0.2861536,0.8687469 -0.4160156,1.4375 -0.3483788,1.5257846 0.1579415,2.914859 1.1992187,3.5585936 l -0.65625,-0.134766 c -0.183369,-0.03945 -0.3062353,-0.03285 -0.34375,-0.0332 -0.781536,-0.007 -1.5095947,0.48726 -1.6992187,1.316407 -0.039512,0.172201 0.074668,0.349185 0.089844,0.529296 -0.00112,8.53e-4 -0.00279,0.0011 -0.00391,0.002 -0.1296471,0.09931 -0.26582,0.222417 -0.3984375,0.416015 a 1.0667346,1.0667346 0 0 0 0,0.002 c -0.2464567,0.361035 -0.3470252,0.833689 -0.2617187,1.267578 a 1.0667346,1.0667346 0 0 0 0,0.002 c 0.1596875,0.809644 0.8815385,1.375 1.6894531,1.375 0.085678,0 0.1873535,-0.0052 0.3105469,-0.02734 l -0.00391,0.002 4.6328125,-0.814453 a 1.0667346,1.0667346 0 0 0 0.6171875,0.373047 l 2.1171875,0.427734 c 0.04788,0.01026 0.140155,0.03453 0.300781,0.03906 a 1.0667346,1.0667346 0 0 0 0.0293,0 l 0.02539,0 c 0.785774,0 1.496537,-0.554548 1.673828,-1.324219 l 0,-0.002 c 0.04953,-0.216136 -0.06298,-0.439759 -0.105469,-0.669922 0.12736,-0.102497 0.30616,-0.120373 0.400391,-0.257813 a 1.0667346,1.0667346 0 0 0 0.0039,-0.0039 c 0.250353,-0.368918 0.342172,-0.837244 0.257812,-1.267578 -0.05092,-0.260108 -0.148394,-0.594648 -0.445312,-0.90625 -0.296918,-0.311602 -0.795706,-0.491129 -1.214844,-0.478516 -0.0752,0.0022 -0.196892,0.0061 -0.355468,0.03711 l -1.230469,0.21875 a 1.0667346,1.0667346 0 0 0 0.361328,-0.458985 C 11.25271,9.6904689 11.852167,8.9148282 11.996094,7.7148438 12.140021,6.5148593 11.729284,5.0540596 10.392578,3.2285156 A 1.0667346,1.0667346 0 0 0 9.3925781,2.8027344 C 9.0677526,2.3648875 8.8649069,2.2261232 8.7617188,1.359375 a 1.0667346,1.0667346 0 0 0 -1.109375,-0.9375 z" />
</svg>

<svg width="16" height="16" viewBox="0 0 16 16" fill="none" xmlns="http://www.w3.org/2000/svg">
<path opacity="0.812" d="M7.65235 0.421905C7.42312 0.432868 7.20354 0.517462 7.02621 0.663128C6.84887 0.808794 6.72325 1.00777 6.66797 1.2305C6.56929 1.6312 6.59296 1.93365 6.56641 2.27737C6.43374 2.34446 6.31656 2.43854 6.22238 2.55357C6.12821 2.6686 6.05911 2.80204 6.01954 2.94534C5.97814 3.097 6.02996 3.17837 6.00391 3.3223C5.80511 3.2104 5.57567 3.16519 5.34928 3.19329C5.12289 3.22139 4.91147 3.32133 4.74606 3.47844C4.58065 3.63555 4.46996 3.84154 4.43025 4.06619C4.39053 4.29083 4.42388 4.5223 4.5254 4.72659C4.59316 4.86317 4.60823 5.07123 4.51759 5.45901C4.42694 5.8468 4.23143 6.32776 4.10157 6.89651C3.75319 8.4223 4.25951 9.81137 5.30079 10.4551L4.64454 10.3203C4.46117 10.2809 4.3383 10.2875 4.30079 10.2871C3.51925 10.2801 2.79119 10.7744 2.60157 11.6035C2.56206 11.7758 2.67624 11.9527 2.69141 12.1328C2.69029 12.1337 2.68862 12.1339 2.6875 12.1348C2.55786 12.2342 2.42168 12.3573 2.28907 12.5509C2.28907 12.5515 2.28907 12.5522 2.28907 12.5529C2.04261 12.9139 1.94204 13.3865 2.02735 13.8204C2.02735 13.8211 2.02735 13.8218 2.02735 13.8224C2.18704 14.6321 2.90889 15.1974 3.7168 15.1974C3.80248 15.1974 3.90415 15.1922 4.02735 15.1701L4.02344 15.1721L8.65625 14.3576C8.81243 14.5499 9.03064 14.6818 9.27344 14.7307L11.3906 15.1584C11.4385 15.1687 11.5308 15.193 11.6914 15.1975C11.7012 15.1976 11.7109 15.1976 11.7207 15.1975H11.7461C12.5319 15.1975 13.2426 14.6429 13.4199 13.8733V13.8713C13.4695 13.6551 13.3569 13.4315 13.3145 13.2013C13.4418 13.0988 13.6206 13.081 13.7148 12.9435C13.7161 12.9422 13.7174 12.9409 13.7187 12.9396C13.9691 12.5707 14.0609 12.1024 13.9766 11.6721C13.9256 11.4119 13.8282 11.0774 13.5312 10.7658C13.2343 10.4542 12.7355 10.2747 12.3164 10.2873C12.2412 10.2895 12.1195 10.2934 11.9609 10.3244L10.7305 10.5431C10.8913 10.4268 11.0164 10.2678 11.0918 10.0842C11.2527 9.6905 11.8522 8.91486 11.9961 7.71487C12.14 6.51489 11.7293 5.05409 10.3926 3.22855C10.2794 3.07447 10.1268 2.95365 9.95088 2.87875C9.77495 2.80384 9.58213 2.7776 9.39258 2.80276C9.06776 2.36492 8.86491 2.22615 8.76172 1.35941C8.72938 1.09193 8.59702 0.84659 8.39124 0.672685C8.18545 0.49878 7.92148 0.409188 7.65235 0.421905V0.421905Z" fill="white"/>
</svg>
